dist/images/about-logo.svg

<svg width="167" height="205" viewBox="0 0 167 205" fill="none" xmlns="http://www.w3.org/2000/svg">
<path d="M165.998 138.609C163.103 140.753 159.248 142.439 154.433 143.669C149.619 144.898 145.008 145.545 140.603 145.607C123.884 145.607 114.666 139.535 112.902 127.431L165.631 127.401L165.628 123.58H165.623C165.674 118.212 164.535 113.6 162.174 109.767C159.688 105.733 156.227 102.675 151.79 100.595C147.354 98.5143 142.302 97.4743 136.639 97.4743C130.597 97.4743 125.341 98.4992 120.873 100.548C116.403 102.597 112.974 105.545 110.584 109.388C108.191 113.235 106.996 117.838 106.996 123.196C106.996 123.339 107.012 123.471 107.014 123.613L92.2494 123.621C95.6128 112.75 96.4253 103.268 94.7672 94.843C92.9189 85.467 88.5284 76.9805 81.5928 69.3824L82.0852 68.8264C87.7382 73.8482 93.0672 77.9187 98.0756 81.0412C103.083 84.1628 108.549 85.7604 114.477 85.8306C120.404 85.9017 125.941 83.0307 131.089 77.2149C137.112 70.4113 139.123 63.3011 137.123 55.8887C135.122 48.4749 129.302 40.487 119.658 31.921C117.22 29.7546 114.823 27.6253 112.468 25.534C110.112 23.4408 107.744 21.3929 105.362 19.3874C101.981 16.3837 98.5724 13.3562 95.137 10.3043C91.7006 7.25145 88.2087 4.14985 84.6628 1C75.3544 11.7377 65.4155 23.0777 54.8479 35.0148C44.2779 46.9543 34.2265 58.1944 24.6977 68.7347L29.9348 73.3871C29.9387 73.3828 29.9421 73.3784 29.946 73.3745L29.947 73.393C40.4493 72.835 53.7989 77.0882 62.433 83.6969C70.5684 89.8187 75.6789 97.833 77.6392 107.59C78.9426 112.845 79.6812 118.233 79.8957 123.629L25.3628 123.66V123.719C25.3419 123.719 25.3205 123.719 25.2996 123.718C25.3404 124.264 25.3623 124.868 25.3638 125.523V125.621C25.3628 126.277 25.3409 126.858 25.2996 127.358C25.321 127.358 25.3429 127.358 25.3643 127.358V127.481L57.8839 127.463C57.0139 133.924 54.2387 138.725 49.5344 141.845C44.7518 145.018 38.7192 146.604 31.4387 146.604C25.9671 146.604 21.2487 145.648 17.2858 143.734C13.321 141.823 10.2841 139.105 8.17299 135.581C6.06143 132.06 5.00613 127.965 5.00613 123.3C5.00613 118.681 6.09403 114.681 8.27031 111.298C10.4451 107.915 13.6227 105.326 17.803 103.53C21.9814 101.734 27.001 100.835 32.8608 100.835C36.9103 100.835 41.2837 101.337 45.9803 102.34C50.6758 103.344 55.2639 105.012 59.7458 107.344C59.6592 106.739 59.6169 106.073 59.6169 105.35C59.6169 104.626 59.6587 103.891 59.7458 103.145C55.0931 101.092 50.3966 99.6348 45.6567 98.7707C40.9174 97.908 36.522 97.4757 32.4735 97.4757C25.8819 97.4757 20.2264 98.4675 15.509 100.451C10.7915 102.434 7.1941 105.361 4.71665 109.234C2.23872 113.107 1 117.818 1 123.371C1 128.876 2.1633 133.612 4.4904 137.576C6.81702 141.543 10.2636 144.587 14.8303 146.71C19.3964 148.833 24.9546 149.894 31.5044 149.894C39.6475 149.894 46.4434 148.121 51.8941 144.574C54.7637 142.707 56.9979 140.268 58.6317 137.288H79.2229C77.6188 140.309 76.1883 142.949 74.3838 145.172C72.1146 147.971 68.9599 151.468 64.9216 155.665L62.6811 157.904C58.8302 161.835 56.3396 165.568 55.2079 169.103C54.0782 172.638 54.213 176.196 55.6088 179.774C57.0062 183.355 59.7196 187.168 63.7505 191.216C67.2526 194.733 70.9206 197.531 74.7545 199.613C78.5899 201.695 82.3712 203.157 86.0986 204C86.6012 203.417 87.1913 202.785 87.8706 202.107C88.5493 201.428 89.2046 200.815 89.8328 200.269C86.4129 200.098 82.6846 199.029 78.6512 197.065C74.6178 195.1 70.8705 192.381 67.4098 188.905C63.0952 184.573 60.5345 180.707 59.7273 177.312C58.9212 173.918 59.3551 170.771 61.0293 167.875C62.376 165.547 64.4935 162.876 67.3558 159.876L81.8112 174.392C87.6341 180.24 92.9018 183.785 97.6154 185.028C102.331 186.272 106.431 185.152 109.916 181.669C112.814 178.775 114.16 175.411 113.954 171.579C113.75 167.745 111.57 163.745 107.417 159.574C103.957 156.1 100.341 153.535 96.5698 151.877C92.8001 150.22 89.1287 149.3 85.558 149.116C82.6014 148.964 79.7264 149.172 76.9235 149.704C77.4421 149.14 77.9588 148.58 78.476 148.056C81.0381 145.462 84.221 140.574 85.7999 137.288H110.513C111.745 139.34 113.279 141.178 115.163 142.77C120.606 147.373 128.49 149.674 138.811 149.674C143.532 149.674 148.283 149.169 153.066 148.161C157.849 147.153 162.16 145.734 166 143.905C165.936 143.148 165.905 142.283 165.905 141.306C165.903 140.328 165.934 139.43 165.998 138.609ZM89.0582 152.224C93.9362 153.632 98.5116 156.481 102.787 160.774C105.962 163.964 107.835 167.089 108.401 170.152C108.968 173.215 108.007 175.99 105.517 178.478C102.439 181.553 98.8697 182.184 94.8056 180.372C90.7435 178.558 85.8626 174.792 80.1619 169.067L69.1696 158.028C69.3077 157.891 69.4362 157.759 69.5773 157.621L70.256 156.943C72.261 154.94 74.0101 152.935 75.6926 151.056C80.0767 150.536 84.5315 150.918 89.0582 152.224ZM112.566 122.913C112.566 116.103 114.721 110.824 119.032 107.073C123.342 103.323 129.212 101.446 136.639 101.446C140.793 101.446 144.647 102.267 148.202 103.905C151.758 105.546 154.622 107.94 156.793 111.093C158.964 114.246 160.054 119.171 160.118 123.583H160.118L112.594 123.611C112.589 123.374 112.566 123.153 112.566 122.913ZM71.6198 25.7977C76.3562 20.4479 81.079 15.1127 85.7896 9.7921L97.7599 20.4255C100.697 23.0343 103.662 25.6686 106.654 28.3267C109.646 30.9848 112.611 33.618 115.549 36.2279C123.473 43.2669 128.349 49.7528 130.175 55.6845C132.001 61.6167 130.452 67.3667 125.523 72.9344C121.469 77.5127 117.183 79.9471 112.666 80.2439C108.147 80.5392 103.272 79.1385 98.0455 76.0423C92.8167 72.9461 86.4917 68.0987 79.0662 61.5027C77.0154 59.6809 74.6601 57.5887 72.0002 55.2259C69.3394 52.8622 66.5116 50.2962 63.5209 47.527L57.2859 41.9885C62.1036 36.5471 66.8823 31.149 71.6198 25.7977ZM64.4599 81.0169C55.9479 74.5008 43.622 70.2792 32.8847 70.0111C33.8178 68.9433 34.751 67.8896 35.6842 66.8082C37.5992 64.5882 39.5453 62.3649 41.5163 60.1386C43.8142 57.4293 47.8666 52.7398 53.6719 46.0712C55.6113 47.7936 57.7997 49.7377 60.2392 51.905C62.6767 54.0704 65.5848 56.7119 68.9677 59.8252C75.9485 66.1385 81.1121 72.4119 84.4585 78.6424C87.8015 84.8719 89.4678 91.4626 89.4537 98.4129C89.4396 105.318 86.6391 114.892 83.2441 123.415C83.0169 117.819 82.2496 112.236 80.9131 106.853C78.802 96.3368 73.2623 87.6412 64.4599 81.0169ZM83.2533 123.608L83.2918 123.627H83.2538C83.2543 123.621 83.2538 123.615 83.2533 123.608ZM60.0076 134.231C60.7209 132.304 61.2536 130.216 61.5548 127.918C61.548 127.752 61.547 127.617 61.5416 127.46L107.277 127.435C107.577 129.886 108.127 132.162 108.969 134.231H60.0076Z" fill="white" stroke="white" stroke-width="0.75"/>
</svg>

<svg width="167" height="205" fill="none" xmlns="http://www.w3.org/2000/svg"><path d="M165.998 138.609c-2.895 2.144-6.75 3.83-11.565 5.06-4.814 1.229-9.425 1.876-13.83 1.938-16.719 0-25.937-6.072-27.701-18.176l52.729-.03-.003-3.821h-.005c.051-5.368-1.088-9.98-3.449-13.813-2.486-4.034-5.947-7.092-10.384-9.172-4.436-2.08-9.488-3.12-15.151-3.12-6.042 0-11.298 1.024-15.766 3.073-4.47 2.049-7.899 4.997-10.289 8.84-2.393 3.847-3.588 8.45-3.588 13.808 0 .143.016.275.018.417l-14.765.008c3.364-10.871 4.176-20.353 2.518-28.778-1.848-9.376-6.239-17.862-13.174-25.46l.492-.557c5.653 5.022 10.982 9.093 15.99 12.215 5.008 3.122 10.474 4.72 16.402 4.79 5.927.07 11.464-2.8 16.612-8.616 6.023-6.804 8.034-13.914 6.034-21.326-2.001-7.414-7.821-15.402-17.465-23.968l-7.19-6.387a353.095 353.095 0 00-7.106-6.147c-3.381-3.003-6.79-6.03-10.225-9.083L84.663 1a4358.659 4358.659 0 01-29.815 34.015 4355.636 4355.636 0 01-30.15 33.72l5.237 4.652.011-.013.001.019c10.502-.558 23.852 3.695 32.486 10.304 8.135 6.122 13.246 14.136 15.206 23.893 1.304 5.255 2.042 10.643 2.257 16.039l-54.533.031v.059l-.063-.001c.04.546.062 1.15.064 1.805v.098a21.789 21.789 0 01-.064 1.737h.064v.123l32.52-.018c-.87 6.461-3.645 11.262-8.35 14.382-4.782 3.173-10.815 4.759-18.095 4.759-5.472 0-10.19-.956-14.153-2.87-3.965-1.911-7.002-4.629-9.113-8.153-2.112-3.521-3.167-7.616-3.167-12.281 0-4.619 1.088-8.619 3.264-12.002 2.175-3.383 5.353-5.972 9.533-7.768 4.178-1.796 9.198-2.695 15.058-2.695 4.05 0 8.423.502 13.12 1.505 4.695 1.004 9.283 2.672 13.765 5.004a14.146 14.146 0 01-.13-1.994c0-.724.043-1.459.13-2.205-4.653-2.053-9.35-3.51-14.09-4.374-4.739-.863-9.134-1.295-13.182-1.295-6.592 0-12.248.992-16.965 2.975-4.718 1.983-8.315 4.91-10.792 8.783C2.239 113.107 1 117.818 1 123.371c0 5.505 1.163 10.241 3.49 14.205 2.327 3.967 5.774 7.011 10.34 9.134s10.125 3.184 16.674 3.184c8.143 0 14.94-1.773 20.39-5.32 2.87-1.867 5.104-4.306 6.738-7.286h20.59c-1.603 3.021-3.034 5.661-4.838 7.884-2.27 2.799-5.424 6.296-9.462 10.493l-2.24 2.239c-3.852 3.931-6.342 7.664-7.474 11.199-1.13 3.535-.995 7.093.4 10.671 1.398 3.581 4.112 7.394 8.143 11.442 3.502 3.517 7.17 6.315 11.003 8.397 3.836 2.082 7.617 3.544 11.345 4.387a34.881 34.881 0 011.772-1.893 38.488 38.488 0 011.962-1.838c-3.42-.171-7.148-1.24-11.182-3.204-4.033-1.965-7.78-4.684-11.241-8.16-4.315-4.332-6.875-8.198-7.683-11.593-.806-3.394-.372-6.541 1.302-9.437 1.347-2.328 3.464-4.999 6.327-7.999l14.455 14.516c5.823 5.848 11.09 9.393 15.804 10.636 4.716 1.244 8.816.124 12.301-3.359 2.898-2.894 4.244-6.258 4.038-10.09-.204-3.834-2.384-7.834-6.537-12.005-3.46-3.474-7.076-6.039-10.847-7.697-3.77-1.657-7.441-2.577-11.012-2.761a36.161 36.161 0 00-8.635.588 64.7 64.7 0 011.553-1.648c2.562-2.594 5.745-7.482 7.324-10.768h24.713a21.82 21.82 0 004.65 5.482c5.443 4.603 13.327 6.904 23.648 6.904 4.721 0 9.472-.505 14.255-1.513 4.783-1.008 9.094-2.427 12.934-4.256a31.207 31.207 0 01-.095-2.599c-.002-.978.029-1.876.093-2.697zm-76.94 13.615c4.878 1.408 9.454 4.257 13.729 8.55 3.175 3.19 5.048 6.315 5.614 9.378.567 3.063-.394 5.838-2.884 8.326-3.078 3.075-6.647 3.706-10.711 1.894-4.063-1.814-8.943-5.58-14.644-11.305L69.17 158.028c.138-.137.266-.269.407-.407l.679-.678c2.005-2.003 3.754-4.008 5.437-5.887 4.384-.52 8.838-.138 13.365 1.168zm23.508-29.311c0-6.81 2.155-12.089 6.466-15.84 4.31-3.75 10.18-5.627 17.607-5.627 4.154 0 8.008.821 11.563 2.459 3.556 1.641 6.42 4.035 8.591 7.188 2.171 3.153 3.261 8.078 3.325 12.49h0l-47.524.028c-.005-.237-.028-.458-.028-.698zM71.62 25.798L85.79 9.792l11.97 10.633 8.894 7.902 8.895 7.9c7.924 7.04 12.8 13.526 14.626 19.458 1.826 5.932.277 11.682-4.652 17.25-4.054 4.578-8.34 7.012-12.857 7.309-4.519.295-9.394-1.106-14.62-4.202-5.23-3.096-11.554-7.943-18.98-14.54L72 55.227a556.723 556.723 0 01-8.48-7.699l-6.234-5.538L71.62 25.798zm-7.16 55.219C55.948 74.5 43.622 70.279 32.885 70.01c.933-1.068 1.866-2.121 2.8-3.203a688.403 688.403 0 015.831-6.67c2.298-2.709 6.35-7.398 12.156-14.067l6.567 5.834a689.358 689.358 0 018.729 7.92c6.98 6.313 12.144 12.587 15.49 18.817 3.344 6.23 5.01 12.82 4.996 19.77-.014 6.906-2.815 16.48-6.21 25.003-.227-5.596-.994-11.179-2.33-16.562-2.112-10.516-7.652-19.212-16.454-25.836zm18.793 42.591l.039.019h-.038v-.019zm-23.245 10.623a28.89 28.89 0 001.547-6.313c-.007-.166-.008-.301-.013-.458l45.735-.025c.3 2.451.85 4.727 1.692 6.796H60.008z" fill="#fff" stroke="#fff" stroke-width=".75"/></svg>
